icons/bhi_tearsheet.svg

<svg xmlns="http://www.w3.org/2000/svg" viewBox="0 0 512 512"><defs><style>.cls-1,.cls-2{fill:#010101;}.cls-2{fill-rule:evenodd;}</style></defs><title>bhi_tearsheet</title><path class="cls-1" d="M132.76 108.97h246.47v50.66h-246.47zM132.76 204.23h246.47v50.66h-246.47zM132.76 299.48h246.47v50.66h-246.47z"/><path class="cls-2" d="M32 32v443.08l46.19 35.56 35.56-35.56 35.56 35.56 35.56-35.56 35.56 35.56 35.57-35.56 35.56 35.56 35.56-35.56 35.56 35.56 35.56-35.56 35.56 35.56 46.2-35.56v-443.08c0-14.36-17.64-32-32-32h-384c-14.36 0-32 17.64-32 32zm384 397.25l-17.75-22.68-34.25 34.25-1.31 1.31-1.31-1.31-34.26-34.25-34.25 34.26-1.31 1.31-1.31-1.31-34.25-34.26-34.26 34.26-1.31 1.31-1.31-1.31-34.25-34.26-34.25 34.25-1.31 1.31-1.31-1.31-34.26-34.26-17.74 22.69v-365.25h320v365.25z"/></svg>

<svg id="Layer_1" data-name="Layer 1" xmlns="http://www.w3.org/2000/svg" viewBox="0 0 512 512"><defs><style>.cls-1,.cls-2{fill:#010101;}.cls-2{fill-rule:evenodd;}</style></defs><title>bhi_tearsheet</title><rect class="cls-1" x="132.76" y="108.97" width="246.47" height="50.66"/><rect class="cls-1" x="132.76" y="204.23" width="246.47" height="50.66"/><rect class="cls-1" x="132.76" y="299.48" width="246.47" height="50.66"/><path class="cls-2" d="M32,32V475.08l46.19,35.56,35.56-35.56,35.56,35.56,35.56-35.56,35.56,35.56L256,475.08l35.56,35.56,35.56-35.56,35.56,35.56,35.56-35.56,35.56,35.56L480,475.08V32c0-14.36-17.64-32-32-32H64C49.64,0,32,17.64,32,32ZM416,429.25l-17.75-22.68L364,440.82l-1.31,1.31-1.31-1.31-34.26-34.25-34.25,34.26-1.31,1.31-1.31-1.31L256,406.57l-34.26,34.26-1.31,1.31-1.31-1.31-34.25-34.26-34.25,34.25-1.31,1.31L148,440.82l-34.26-34.26L96,429.25V64H416V429.25Z"/></svg>
